docs/.gitbook/assets/icon-calendar-16@light.svg

<svg width="32" height="32" viewBox="0 0 16 16" fill="none" xmlns="http://www.w3.org/2000/svg">
<rect x="0" y="0" width="16" height="16" fill="#fff"/>
<path fill-rule="evenodd" clip-rule="evenodd" d="M4.75 1C5.16421 1 5.5 1.33579 5.5 1.75V2H10.5V1.75C10.5 1.33579 10.8358 1 11.25 1C11.6642 1 12 1.33579 12 1.75V2H12.25C13.7688 2 15 3.23122 15 4.75V12.25C15 13.7688 13.7688 15 12.25 15H3.75C2.23122 15 1 13.7688 1 12.25V4.75C1 3.23122 2.23122 2 3.75 2H4V1.75C4 1.33579 4.33579 1 4.75 1ZM4 3.5H3.75C3.05964 3.5 2.5 4.05964 2.5 4.75V12.25C2.5 12.9404 3.05964 13.5 3.75 13.5H12.25C12.9404 13.5 13.5 12.9404 13.5 12.25V4.75C13.5 4.05964 12.9404 3.5 12.25 3.5H12V4.25C12 4.66421 11.6642 5 11.25 5C10.8358 5 10.5 4.66421 10.5 4.25V3.5H5.5V4.25C5.5 4.66421 5.16421 5 4.75 5C4.33579 5 4 4.66421 4 4.25V3.5ZM4 7.25C4 6.83579 4.33579 6.5 4.75 6.5H11.25C11.6642 6.5 12 6.83579 12 7.25C12 7.66421 11.6642 8 11.25 8H4.75C4.33579 8 4 7.66421 4 7.25Z" fill="#000"/>
</svg>

<svg xmlns="http://www.w3.org/2000/svg" width="32" height="32" fill="none" viewBox="0 0 16 16"><path fill="#fff" d="M0 0h16v16H0z"/><path fill="#000" fill-rule="evenodd" d="M4.75 1a.75.75 0 0 1 .75.75V2h5v-.25a.75.75 0 0 1 1.5 0V2h.25A2.75 2.75 0 0 1 15 4.75v7.5A2.75 2.75 0 0 1 12.25 15h-8.5A2.75 2.75 0 0 1 1 12.25v-7.5A2.75 2.75 0 0 1 3.75 2H4v-.25A.75.75 0 0 1 4.75 1M4 3.5h-.25c-.69 0-1.25.56-1.25 1.25v7.5c0 .69.56 1.25 1.25 1.25h8.5c.69 0 1.25-.56 1.25-1.25v-7.5c0-.69-.56-1.25-1.25-1.25H12v.75a.75.75 0 0 1-1.5 0V3.5h-5v.75a.75.75 0 0 1-1.5 0zm0 3.75a.75.75 0 0 1 .75-.75h6.5a.75.75 0 0 1 0 1.5h-6.5A.75.75 0 0 1 4 7.25" clip-rule="evenodd"/></svg>
